X: 262
T: A Memory Of Friends Past
R: jig
M: 6/8
K: Dmajor
|:DFA dcd|B^AB G2 F|EFG ABc|dAG FGE|
DF/G/A d2 d|B^AB G2 F|EE/F/G A>Bc|1 d3 dAF:|2 d3- dAd||
|:f^ef dAd|gfg e2 d|cec ABc|
[1 dAG FAd|f2 f dAd|g2 g e2 d|c2 c A>Bc|d3 dAd:|
[2 dAG FGE|DFA dcd|B^AB G2 F|EFG ABc|d3- d3||

